X:480
T: Foxhunter's
M: C|
L: 1/8
R: reel
K: G
d2BG dGBG|d2BG AGEG|d2BG dGBG|GABG AGEG :|
D3B BAGE|D2BG AGEG|D3B BABG|(3ABc BG AGEG :|
gedB G2Bd|gdBd eAA2|gedB GBdB|ABcd eAA2 :|
dggf g3e|dgg/f/g ef/g/dB|dggf g3d|egdB AGAB :|
G2BG dGBA|GBB/A/B AGAB|G2BG dGBd|egdB AGAB :|
